X:4102
T:Culla Bay
P:The Macaulays of Benbecula
C:Frank Reid
R:Strathspey (4x32)
B:RSCDS 41-2
Z:Anselm Lingnau <anselm@strathspey.org>
M:4/4
L:1/8
K:D
A2|"D"d>b a<d f2 f>e|"Bm"d>f d<F "F#m"A2 F>A|\
   "G"B>c (3dcB "D"A>f d<A|"E7"B2 e2 e2 "A7"f>e|
   "D"d>b a<d f2 f>e|"Bm"d>f d<F "F#m"A2 F>A|\
   "G"B>c (3dcB "D"A>f d<A|"Em"B2 "Gm"d2 "D"d2||
"D"e>d|"A"c>B c<d "A7"e2 A2|"D"A<a f>e "D7"f2 (3fed|\
   "G"g>f g<b "F#m"a>f "Bm"d<A|"E7"B2 e2 "A7"e2 f>e|
   "D"d>b a<d f2 f>e|"Bm"d>f d<F "F#m"A2 F>A|\
   "G"B>c "A7"(3ecB "D"A>f d<A|"Em"B2 "Gm"d2 "D"d2:|

